theme/snap/pix_plugins/mod/url/monologo.svg

<svg xmlns="http://www.w3.org/2000/svg" width="50" height="50" viewBox="0 0 50 50">
  <g id="Group_66" data-name="Group 66" transform="translate(-4997 -2065)">
    <g id="Group_60" data-name="Group 60" transform="translate(256 180)">
      <g id="Group_41" data-name="Group 41">
        <rect id="Rectangle_67" data-name="Rectangle 67" width="50" height="50" rx="5" transform="translate(4741 1885)" fill="#999"/>
      </g>
    </g>
    <path id="monologo" d="M15.4.2C3.523.2-6.15,15.02,4.519,26.518A15.007,15.007,0,0,0,15.4,31.043a14.843,14.843,0,0,0,10.876-4.525C36.94,15.02,27.267.2,15.4.2ZM28.6,14.522H22.867a31.036,31.036,0,0,0-.789-5.106A11.676,11.676,0,0,0,25.4,7.091,13.184,13.184,0,0,1,28.6,14.522ZM24.029,5.8A14.559,14.559,0,0,1,21.58,7.548a14.627,14.627,0,0,0-2.034-4.4A12.253,12.253,0,0,1,24.029,5.8ZM15.4,14.563h-5.6a26.254,26.254,0,0,1,.623-4.359,14.638,14.638,0,0,0,4.981.872,14.638,14.638,0,0,0,4.981-.872A26.254,26.254,0,0,1,21,14.563Zm5.48,2.159a25.488,25.488,0,0,1-.5,4.359,14.669,14.669,0,0,0-9.963,0,25.488,25.488,0,0,1-.5-4.359H20.875ZM15.4,2.483c1.619,0,3.238,1.827,4.442,5.521,0,.083.083.208.083.332a12.136,12.136,0,0,1-4.525.83,13.028,13.028,0,0,1-4.525-.83c0-.125.083-.249.083-.332C12.157,4.31,13.776,2.525,15.4,2.483Zm-4.151.664a14.627,14.627,0,0,0-2.034,4.4A14.559,14.559,0,0,1,6.761,5.8,12.253,12.253,0,0,1,11.244,3.147ZM5.391,7.091A11.676,11.676,0,0,0,8.712,9.416a31.036,31.036,0,0,0-.789,5.106H2.194A13.184,13.184,0,0,1,5.391,7.091ZM5.142,23.82a12.334,12.334,0,0,1-2.864-7.182H8.006a26.839,26.839,0,0,0,.623,5.147,16.232,16.232,0,0,0-3.279,2.325Zm1.536,1.619a14.791,14.791,0,0,1,2.449-1.785l.042.083A15.294,15.294,0,0,0,11.2,28.054,13.727,13.727,0,0,1,6.678,25.439ZM15.4,28.76c-1.7.042-3.4-1.91-4.566-5.853a12.5,12.5,0,0,1,4.566-.83,13.436,13.436,0,0,1,4.566.83C18.8,26.851,17.1,28.8,15.4,28.76Zm4.193-.706a15.294,15.294,0,0,0,2.034-4.317l.042-.083a14.791,14.791,0,0,1,2.449,1.785A13.727,13.727,0,0,1,19.588,28.054Zm6.061-4.234-.208.291a16.232,16.232,0,0,0-3.279-2.325,26.839,26.839,0,0,0,.623-5.147h5.729A12.334,12.334,0,0,1,25.648,23.82Z" transform="translate(5007.081 2074.8)" fill="#fff"/>
  </g>
</svg>

<?xml version="1.0" encoding="UTF-8" standalone="no"?>
<!DOCTYPE svg PUBLIC "-//W3C//DTD SVG 1.1//EN" "http://www.w3.org/Graphics/SVG/1.1/DTD/svg11.dtd">
<svg width="100%" height="100%" viewBox="0 0 50 50" version="1.1" xmlns="http://www.w3.org/2000/svg" xmlns:xlink="http://www.w3.org/1999/xlink" xml:space="preserve" xmlns:serif="http://www.serif.com/" style="fill-rule:evenodd;clip-rule:evenodd;stroke-linejoin:round;stroke-miterlimit:2;">
    <g transform="matrix(1.28088,0,0,1.28088,5.27953,4.98977)">
        <g id="Group_66">
            <path id="monologo" d="M15.4,0.2C3.523,0.2 -6.15,15.02 4.519,26.518C7.376,29.446 11.309,31.081 15.4,31.043C19.492,31.099 23.431,29.461 26.276,26.518C36.94,15.02 27.267,0.2 15.4,0.2ZM28.6,14.522L22.867,14.522C22.746,12.801 22.482,11.093 22.078,9.416C23.312,8.841 24.437,8.054 25.4,7.091C27.219,9.171 28.339,11.771 28.6,14.522ZM24.029,5.8C23.275,6.466 22.455,7.051 21.58,7.548C21.151,5.978 20.464,4.491 19.546,3.148C21.213,3.7 22.742,4.605 24.029,5.8ZM21,14.563L9.8,14.563C9.885,13.095 10.094,11.637 10.423,10.204C12.02,10.781 13.706,11.076 15.404,11.076C17.102,11.076 18.788,10.781 20.385,10.204C20.712,11.637 20.917,13.095 21,14.563ZM20.88,16.722C20.839,18.187 20.672,19.645 20.38,21.081C17.161,19.919 13.636,19.919 10.417,21.081C10.125,19.645 9.958,18.187 9.917,16.722L20.88,16.722ZM15.4,2.483C17.019,2.483 18.638,4.31 19.842,8.004C19.842,8.087 19.925,8.212 19.925,8.336C18.483,8.899 16.947,9.18 15.4,9.166C13.854,9.16 12.322,8.879 10.875,8.336C10.875,8.211 10.958,8.087 10.958,8.004C12.157,4.31 13.776,2.525 15.4,2.483ZM11.249,3.147C10.331,4.49 9.644,5.977 9.215,7.547C8.339,7.051 7.516,6.466 6.761,5.8C8.048,4.605 9.577,3.7 11.244,3.147L11.249,3.147ZM5.391,7.091C6.354,8.054 7.478,8.841 8.712,9.416C8.308,11.093 8.044,12.801 7.923,14.522L2.194,14.522C2.455,11.772 3.573,9.171 5.391,7.091ZM5.142,23.82C3.443,21.795 2.438,19.277 2.278,16.638L8.006,16.638C8.047,18.37 8.256,20.093 8.629,21.785C7.444,22.421 6.342,23.202 5.35,24.11L5.142,23.82ZM6.678,25.439C7.431,24.762 8.252,24.164 9.127,23.654L9.169,23.737C9.616,25.273 10.301,26.73 11.2,28.054C9.539,27.48 8.004,26.592 6.678,25.439ZM15.4,28.76C13.7,28.802 12,26.85 10.834,22.907C12.291,22.348 13.84,22.066 15.4,22.077C16.959,22.087 18.504,22.368 19.966,22.907C18.8,26.851 17.1,28.8 15.4,28.76ZM19.593,28.054C20.493,26.73 21.179,25.274 21.627,23.737L21.669,23.654C22.544,24.164 23.365,24.762 24.118,25.439C22.79,26.593 21.252,27.481 19.588,28.054L19.593,28.054ZM25.654,23.82L25.446,24.111C24.454,23.203 23.352,22.422 22.167,21.786C22.54,20.094 22.749,18.371 22.79,16.639L28.519,16.639C28.357,19.278 27.35,21.796 25.648,23.82L25.654,23.82Z" style="fill:white;fill-rule:nonzero;"/>
        </g>
    </g>
</svg>
